images/sandwich.svg

<svg width="18" height="12" viewBox="0 0 18 12" fill="none" xmlns="http://www.w3.org/2000/svg">
<path d="M0 11C0 11.5523 0.447715 12 1 12H17C17.5523 12 18 11.5523 18 11C18 10.4477 17.5523 10 17 10H1C0.447716 10 0 10.4477 0 11ZM0 6C0 6.55228 0.447715 7 1 7H17C17.5523 7 18 6.55228 18 6C18 5.44772 17.5523 5 17 5H1C0.447716 5 0 5.44772 0 6ZM1 0C0.447716 0 0 0.447715 0 1C0 1.55228 0.447715 2 1 2H17C17.5523 2 18 1.55228 18 1C18 0.447715 17.5523 0 17 0H1Z" fill="white"/>
</svg>

<svg width="18" height="12" fill="none" xmlns="http://www.w3.org/2000/svg"><path d="M0 11a1 1 0 001 1h16a1 1 0 100-2H1a1 1 0 00-1 1zm0-5a1 1 0 001 1h16a1 1 0 100-2H1a1 1 0 00-1 1zm1-6a1 1 0 000 2h16a1 1 0 100-2H1z" fill="#fff"/></svg>
